X: 1
T: Ronas Voe
C: Ronnie Cooper
O: Shetland Islands
F: http://www.thesession.org/tunes/display/7336 2009-6-3
M: 3/4
L: 1/8
R: Waltz
K: D
F2 G2 |\
A6 | f4 c2 | e2 d4 | A4 d2 | B4 d2 | e4 d2 | f6- | f2 F2 G2 |\
A6 | f4 c2 | e2 d4 | d4 f2 | e6 | e4 B2 | e6- | e2 ||
F2 G2 |\
A6 | f4 c2 | e2 d4 | A4 d2 | B4 d2 | e4 d2 | f6- | f4 A2 |\
B6 | c6 | d6 | g6 | f4 A2 | f4 e2 | d6- | d2 |]
